X:80
T:Plowin' the Garden
R:jig
C:Bruce Osborne  --  Mar. 1991
Z:bosborne@kos.net
M:6/8
L:1/8
K:A
A/B/|cBA AFE|EFE EFA|ceA fec|cBA BAB|
cBA AFE|EFE EFA|ceA fec|EGB A2:|
|:E/D/|CEA, CEA,|DFA E2 D|CEA Ace|ecA B2 A|
CEA, CEA,|DFA E2 D|CEA Ace|EGB A2:|
